X:1
T:SPECKLED SPIDER RAG
T:SPECKLED SPIDER RAG
T:"To my Wife."
T:HARRY FRENCH,
T:1912
T:1912
T:1912
C:HARRY FRENCH,
Z:1912
%%score { 1 | 2 }
L:1/8
Q:1/4=114
M:2/4
K:C
V:1 treble nm="Piano" snm="Pno."
V:2 bass 
V:1
"^Tempo di Rag."!8va(!!>(! a'/^f'/_e'/c'/!8va)! a/^f/_e/c/ | A/^F/_E/C/!>)! A, z | %2
 z ([Ge] [Ge]/)c/[Fd] | ([Ec]2 !>![cec']) z |:!f! z/ e/g/c'/ _c'/_g/_e/ z/ | %5
 z/ d/f/d'/ z/ g/^f/g/ | z/ e/g/e'/ z/ _c'/_g/_e/ | z/ d/f/d'/ z/ g/^f/g/ | %8
 z/ e/g/e'/ z/ ^c'/e/^c/ | z/ d/f/d'/ z/ f/a/f'/ | z/ e/g/e'/ z/ _e'/_g/_e/ | %11
 !>![dfd']!>![^ce^c'] !>![dfd']!>![^d^f^d'] | z/ e/g/e'/ z/ _e'/_g/_e/ | z/ d/f/d'/ z/ g/^f/g/ | %14
 z/ e/g/e'/ z/ _e'/_g/_e/ | z/ d/f/d'/ z/ g/^f/g/ | z/ e/g/e'/ z/ ^c'/e/^c/ | %17
 z/ e/g/d'/ z/ f/a/f'/ | z/ e/g/(e'/ e'/)a/[fd'] | ([ec']2 [ec']) z | %20
!mf! [Gcegc'][Gcec']/[ge']/ [Gcege']/c'/[Gcege']/c'/ | %21
 [E^Gded'][EGdb]/[ed']/ [EGded']/b/[EGded']/b/ | [EAcec'][EAca]/([ec']/ [EGcec']/)a/[EGBdec']/a/ | %23
 [DG_Bdb][DG=B^g]/([eb]/ [DGBdb]/)=g/[DGBdb]/g/ | [CFAca][CFAf]/([ca]/ [CFAca]/)f/[CFAca]/f/ | %25
 [A,^CGAg][A,CGe]/([Ag]/ [A,CGAg]/)e/[A,CGAg]/e/ | [A,DFAf][A,DFd]/.[Af]/ .[A,DFAf]/d/[A,DFAf]/d/ | %27
 [A,DFAf] z [c_ea]2 |!8va(! [ac'a']/g'/e'/c'/!8va)! a/g/e/c/ | A/G/E/C/ A,G, | z z{/E} [^G,CD]2 | %31
 z{/A} [B,FG]2 z | z{/e} [^Fcd]2 z | z{/a} [Bfg]2 z |:!ff! [cc']/e/g/([Bb]/ [Bb]/)[Gg]/e/ z/ | %35
 [Aca] [Aca]2 [Aca] | [Gg]/c/e/([Aa]/ [Aa]/)e/[Gg] | [FB]4 | [cc']/d/f/([Bb]/ [Bb]/)e/[Gg]/f/ | %39
 [Afa] [Afa]2 [Afa] | [Aa]/d/f/([Bb]/ [Bb]/)f/[Aa] | [Ge]3 [Gef] | %42
 [cc']/e/g/([Bb]/ [Bb]/)e/[Gg]/e/ | [Aca] [Aca]2 [Aca] | [Aa]/^c/f/[_B_b]/ [Bb]/e/[Gg] | %45
 [Afa]3!8va(! e'/f'/ | a'/g'/e'/c'/!8va)! a/g/e/c/ | A/G/E/C/ A,G, | z [^Fe] [Fe]/c/[=Fd] | %49
 ([Ec]2 !>![cec']) z |:!f! z/!8va(! c/e/g/ c'/e'/g'/c''/!8va)! | %51
 z/!8va(! B/e/^g/ b/e'/^g'/b'/!8va)! | z/!8va(! A/^c/e/ a/^c'/e'/a'/!8va)! | %53
 z [ege'] [faf'][ege'] | [e^fe'][^df^d']/([efe']/ [efe']/)[dfd']/[efe'] | %55
 [dfd'][^cf^g]/([dfd']/ [dfd']/)[cfc']/[dfd'] | [cec'][Beb]/([cec']/ [cec'])[Ad^fa] | %57
 [Bfb]/[^Gf^g]/[Bfb]/([=Gf=g]/ [Gfg]) z | z/!8va(! c/e/g/ c'/e'/g'/c''/!8va)! | %59
 z/!8va(! B/e/^g/ b/e'/^g'/b'/!8va)! | z/!8va(! A/^c/e/ a/^c'/e'/a'/!8va)! | %61
 z [ege'] [faf'][ege'] | [e^fe'][dfd']/[efe']/ [efe']/[^dfd']/[efe'] | %63
 [dfd'][^cf^c']/([dfd']/ [dfd']/)[cfc']/[dfd'] | [cec']3 [Bfb] |!<(! [cec']2!<)! !>![ceg]2 :: %66
!ff! z/ e/G/E/ a/^c/A/g/ | _B/G/f/B/ F/e/G/E/ | z [d^fd']2 [c=fc'] | [A^fa]4 | %70
 z/!8va(! d'/f/d/ g'/b/g/f'/!8va)! |!8va(! c'/f/e'/g/ e/d'/f/d/!8va)! | z [cec']2 [Aca] | %73
 [Gg]2 [_Be][=Bf] | z/!8va(! e'/g/e/ a'/^c'/a/g'/ | _b/g/f'/a/ f/e'/g/e/!8va)! | %76
 z [d^fd']2 [cfc'] | [A^fa]4 | z/!8va(! a'/!<(!_e'/c'/ a'/e'/c'!<)! | z/ e'/g/e/ d'/f/d!8va)! | %80
!>(! [cec']4 | [cec']!>)! z [cegc'] z |] %82
V:2
 z4 | z z z !>![_A,,_A,] | !>![G,,G,][G,CE] [G,,G,][B,,B,] | %3
!<(! [C,C]!>![G,,G,] !>![C,,C,]!<)! z |: C,[G,CE] !>![A,,A,]!>![_G,,_G,] | %5
 !>![G,,G,][G,B,F] [G,B,F]!>![B,,B,] | !>![C,C][G,CE] !>![A,,A,]!>![_A,,_A,] | %7
 !>![G,,G,][F,A,D] [F,A,D]!>![B,,B,] | [C,C][G,CE] !>![A,,A,]!>![_A,,_A,] | %9
 !>![G,,G,][G,B,F] [G,B,F]!>![B,,B,] | !>![C,C][G,CE] !>![_B,,_B,]!>![A,,A,] | %11
 [G,,G,][^G,,^G,] [B,,B,][A,,A,] | C,[G,CE] !>![A,,A,]!>![_A,,_A,] | %13
 !>![G,,G,][G,B,F] [G,B,F]!>![B,,B,] |!<(! !>![C,C][G,CE] [A,,A,]!<)![_A,,_A,] | %15
 [G,,G,][G,B,F] [G,B,F][B,,B,] | [C,C][B,,B,] [_B,,_B,][A,,A,] | D,[F,A,D] A,,[F,A,D] | %18
 [G,,G,]!>(![^G,,^G,] [A,,A,][B,,B,]!>)! |!<(! [C,C]!>![G,,G,] !>![C,,C,] z!<)! |"^L.H." z4 | z4 | %22
 z4 | z4 | z4 | z4 | z4 | z2 [^F,C_E]2 | !>![G,CE] z z2 | z4 | !>![A,,,A,,] z z !>![_A,,,_A,,] | %31
 !>![G,,,G,,]2 z !>![^G,,^G,] | !>![A,,A,] z z !>![^G,,^G,] | !>![G,,G,] z z !>![G,,G,] |: %34
 A,,[G,CE] [G,,G,][G,CE] | C,[G,CE] [G,,G,][G,CE] | C,[G,CE] [E,,E,][_E,,_E,] | %37
 [D,,D,][B,,B,] [A,,A,][^G,,^G,] | [G,,G,][G,B,F] B,,[G,B,F] | [G,,G,][G,B,F] D,[G,B,F] | %40
 [G,,G,][G,B,F] D,[G,B,F] | [A,,A,][G,,G,] [F,,F,][E,,E,] | C,[G,CE] [G,,G,][G,CE] | %43
 C,[G,CE] [G,,G,][G,CE] | E,[G,A,^C] A,,[G,A,C] | D,[F,A,D] [F,A,D] z | [G,CE] z z2 | z4 | %48
 [D,,D,][D,^F,C] [A,,A,][B,,B,] | [C,C]!>![G,,G,] !>![C,,C,] z |: [C,C] [G,CE]2 [G,,G,] | %51
 [A,,A,] [G,^B,E]2 [E,,E,] | [A,,A,] [G,A,^C]2 [E,,E,] | [A,,A,][G,A,^C] E,[G,A,C] | %54
 G,,[D,^F,C] [D,,D,][D,F,C] | G,,[F,G,B,] [D,,D,][F,G,B,] | C,[G,CE] [E,E][_E,_E] | %57
 [D,D]2 [B,,B,][A,,A,] | [C,C] [G,CE]2 [A,,G,] | [B,,B,] [G,_B,E]2 [E,,E,] | %60
 [G,,G,] [G,A,^C]2 [E,,E,] | [A,,G,][G,A,^C] E,[G,A,C] | A,,[D,^F,C] [D,,D,][D,F,C] | %63
 G,,[F,G,B,] [D,,D,][F,G,B,] | [C,C] [A,,A,]2 [G,,G,] | [C,,C,]G,, [C,,C,] z :: %66
 [A,,A,][A,^CG] [A,CG][E,,E,] | [A,,A,][A,^CG] [A,CG][E,,E,] | [D,,D,][CD^F] [A,,A,][CDF] | %69
 z [D,D] [C,C][A,,A,] | [G,,G,][G,B,F] [G,B,F][D,,D,] | [G,,G,][G,B,F] [G,,G,][B,,B,] | %72
 [C,C][G,CE] [C,C][_E,_E] | [E,E][^C,^C] [D,D][G,,G,] | [A,,A,][A,^CG] [A,CG][E,,E,] | %75
 [A,,A,][A,^CG] [A,CG][E,,E,] | [D,,D,][CD^F] [A,,A,][CDF] | z [D,D] [C,C][B,,B,] | %78
 [^F,,^F,][A,,A,] [C,C][_E,_E] | [E,E][G,CE] [G,,G,][G,B,F] | [C,C]>[A,,A,] [G,,G,][E,,E,] | %81
 [C,,C,] z [C,,C,] z |] %82

